VLog_RAWGamut_to_VLog_VGamut_forS1H_ver100.cube
# VLog_RAWGamut_to_VLog_VGamut_forS1H_ver100.cube by panasonic
LUT_3D_SIZE 33
0.000000 0.000000 0.000000
0.033203 0.000000 0.006836
0.066650 0.000000 0.013916
0.100098 0.000000 0.020996
0.133545 0.000000 0.028076
0.166748 0.000000 0.034912
0.200195 0.000000 0.041992
0.233643 0.000000 0.049072
0.267090 0.000000 0.056152
0.300293 0.000000 0.062988
0.333740 0.000000 0.070068
0.367188 0.000000 0.077148
0.400635 0.000000 0.084229
0.433838 0.000000 0.091064
0.467285 0.000000 0.098145
0.500732 0.000000 0.105225
0.534180 0.000000 0.112305
0.567383 0.000000 0.119141
0.600830 0.000000 0.126221
0.634277 0.000000 0.133301
0.667725 0.000000 0.140381
0.700928 0.000000 0.147217
0.734375 0.000000 0.154297
0.767822 0.000000 0.161377
0.801270 0.000000 0.168457
0.834473 0.000000 0.175293
0.867920 0.000000 0.182373
0.901367 0.000000 0.189453
0.934814 0.000000 0.196533
0.968254 0.000000 0.203369
0.984127 0.000000 0.210449
1.000000 0.000000 0.217529
1.000000 0.000000 0.224609
0.000000 0.036621 0.000000
0.031738 0.036133 0.000000
0.065186 0.035400 0.000000
0.098633 0.034912 0.000000
0.131836 0.034180 0.006836
0.165283 0.033691 0.013916
0.198730 0.032959 0.020996
0.232178 0.032471 0.028076
0.265381 0.031738 0.034912
0.298828 0.031250 0.041992
0.332275 0.030518 0.049072
0.365723 0.030029 0.056152
0.398926 0.029297 0.062988
0.432373 0.028809 0.070068
0.465820 0.028076 0.077148
0.499268 0.027588 0.084229
0.532471 0.026855 0.091064
0.565918 0.026367 0.098145
0.599365 0.025635 0.105225
0.632813 0.025146 0.112305
0.666016 0.024414 0.119141
0.699463 0.023926 0.126221
0.732910 0.023193 0.133301
0.766357 0.022705 0.140381
0.799561 0.021973 0.147217
0.833008 0.021484 0.154297
0.866455 0.020752 0.161377
0.899902 0.020264 0.168457
0.933105 0.019531 0.175293
0.966789 0.019043 0.182373
0.983394 0.018311 0.189453
1.000000 0.017822 0.196533
1.000000 0.017090 0.203369
0.000000 0.073486 0.000000
0.030273 0.072754 0.000000
0.063721 0.072266 0.000000
0.096924 0.071533 0.000000
0.130371 0.071045 0.000000
0.163818 0.070313 0.000000
0.197266 0.069824 0.000000
0.230469 0.069092 0.006836
0.263916 0.068604 0.013916
0.297363 0.067871 0.020996
0.330811 0.067383 0.028076
0.364014 0.066650 0.034912
0.397461 0.066162 0.041992
0.430908 0.065430 0.049072
0.464355 0.064941 0.056152
0.497559 0.064209 0.062988
0.531006 0.063721 0.070068
0.564453 0.062988 0.077148
0.597900 0.062500 0.084229
0.631104 0.061768 0.091064
0.664551 0.061279 0.098145
0.697998 0.060547 0.105225
0.731445 0.060059 0.112305
0.764648 0.059326 0.119141
0.798096 0.058838 0.126221
0.831543 0.058105 0.133301
0.864990 0.057617 0.140381
0.898193 0.056885 0.147217
0.931641 0.056396 0.154297
0.965324 0.055664 0.161377
0.982662 0.055176 0.168457
0.999512 0.054443 0.175293
1.000000 0.053955 0.182373
0.000000 0.110107 0.000000
0.028809 0.109619 0.000000
0.062012 0.108887 0.000000
0.095459 0.108398 0.000000
0.128906 0.107666 0.000000
0.162354 0.107178 0.000000
0.195557 0.106445 0.000000
0.229004 0.105957 0.000000
0.262451 0.105225 0.000000
0.295898 0.104736 0.000000
0.329102 0.104004 0.006836
0.362549 0.103516 0.013916
0.395996 0.102783 0.020996
0.429443 0.102295 0.028076
0.462646 0.101563 0.034912
0.496094 0.101074 0.041992
0.529541 0.100342 0.049072
0.562988 0.099854 0.056152
0.596191 0.099121 0.062988
0.629639 0.098633 0.070068
0.663086 0.097900 0.077148
0.696533 0.097412 0.084229
0.729736 0.096680 0.091064
0.763184 0.096191 0.098145
0.796631 0.095459 0.105225
0.830078 0.094971 0.112305
0.863281 0.094238 0.119141
0.896729 0.093750 0.126221
0.930176 0.093018 0.133301
0.963858 0.092529 0.140381
0.981929 0.091797 0.147217
0.998535 0.091309 0.154297
1.000000 0.090576 0.161377
0.000000 0.146973 0.000000
0.027100 0.146240 0.000000
0.060547 0.145752 0.000000
0.093994 0.145020 0.000000
0.127441 0.144531 0.000000
0.160645 0.143799 0.000000
0.194092 0.143311 0.000000
0.227539 0.142578 0.000000
0.260986 0.142090 0.000000
0.294189 0.141357 0.000000
0.327637 0.140869 0.000000
0.361084 0.140137 0.000000
0.394531 0.139648 0.000000
0.427734 0.138916 0.006836
0.461182 0.138428 0.013916
0.494629 0.137695 0.020996
0.528076 0.137207 0.028076
0.561279 0.136475 0.034912
0.594727 0.135986 0.041992
0.628174 0.135254 0.049072
0.661621 0.134766 0.056152
0.694824 0.134033 0.062988
0.728271 0.133545 0.070068
0.761719 0.132813 0.077148
0.795166 0.132324 0.084229
0.828369 0.131592 0.091064
0.861816 0.131104 0.098145
0.895264 0.130371 0.105225
0.928711 0.129883 0.112305
0.962149 0.129150 0.119141
0.981197 0.128662 0.126221
0.997802 0.127930 0.133301
1.000000 0.127441 0.140381
0.000000 0.183594 0.000000
0.025635 0.183105 0.000000
0.059082 0.182373 0.000000
0.092529 0.181885 0.000000
0.125732 0.181152 0.000000
0.159180 0.180664 0.000000
0.192627 0.179932 0.000000
0.226074 0.179443 0.000000
0.259277 0.178711 0.000000
0.292725 0.178223 0.000000
0.326172 0.177490 0.000000
0.359619 0.177002 0.000000
0.392822 0.176270 0.000000
0.426270 0.175781 0.000000
0.459717 0.175049 0.000000
0.493164 0.174561 0.000000
0.526367 0.173828 0.006836
0.559814 0.173340 0.013916
0.593262 0.172607 0.020996
0.626709 0.172119 0.028076
0.659912 0.171387 0.034912
0.693359 0.170898 0.041992
0.726807 0.170166 0.049072
0.760254 0.169678 0.056152
0.793457 0.168945 0.062988
0.826904 0.168457 0.070068
0.860352 0.167725 0.077148
0.893799 0.167236 0.084229
0.927002 0.166504 0.091064
0.960684 0.166016 0.098145
0.980464 0.165283 0.105225
0.997070 0.164795 0.112305
1.000000 0.164063 0.119141
0.000000 0.220459 0.000000
0.024170 0.219727 0.000000
0.057617 0.219238 0.000000
0.090820 0.218506 0.000000
0.124268 0.218018 0.000000
0.157715 0.217285 0.000000
0.191162 0.216797 0.000000
0.224365 0.216064 0.000000
0.257813 0.215576 0.000000
0.291260 0.214844 0.000000
0.324707 0.214355 0.000000
0.357910 0.213623 0.000000
0.391357 0.213135 0.000000
0.424805 0.212402 0.000000
0.458252 0.211914 0.000000
0.491455 0.211182 0.000000
0.524902 0.210693 0.000000
0.558350 0.209961 0.000000
0.591797 0.209473 0.000000
0.625000 0.208740 0.006836
0.658447 0.208252 0.013916
0.691895 0.207520 0.020996
0.725342 0.207031 0.028076
0.758545 0.206299 0.034912
0.791992 0.205811 0.041992
0.825439 0.205078 0.049072
0.858887 0.204590 0.056152
0.892090 0.203857 0.062988
0.925537 0.203369 0.070068
0.959219 0.202637 0.077148
0.979731 0.202148 0.084229
0.996337 0.201416 0.091064
1.000000 0.200928 0.098145
0.000000 0.257080 0.000000
0.022705 0.256592 0.000000
0.055908 0.255859 0.000000
0.089355 0.255371 0.000000
0.122803 0.254639 0.000000
0.156250 0.254150 0.000000
0.189453 0.253418 0.000000
0.222900 0.252930 0.000000
0.256348 0.252197 0.000000
0.289795 0.251709 0.000000
0.322998 0.250977 0.000000
0.356445 0.250488 0.000000
0.389893 0.249756 0.000000
0.423340 0.249268 0.000000
0.456543 0.248535 0.000000
0.489990 0.248047 0.000000
0.523438 0.247314 0.000000
0.556885 0.246826 0.000000
0.590088 0.246094 0.000000
0.623535 0.245605 0.000000
0.656982 0.244873 0.000000
0.690430 0.244385 0.000000
0.723633 0.243652 0.006836
0.757080 0.243164 0.013916
0.790527 0.242432 0.020996
0.823975 0.241943 0.028076
0.857178 0.241211 0.034912
0.890625 0.240723 0.041992
0.924072 0.239990 0.049072
0.957753 0.239502 0.056152
0.978999 0.238770 0.062988
0.995604 0.238281 0.070068
1.000000 0.237549 0.077148
0.000000 0.293945 0.000000
0.020996 0.293213 0.000000
0.054443 0.292725 0.000000
0.087891 0.291992 0.000000
0.121338 0.291504 0.000000
0.154541 0.290771 0.000000
0.187988 0.290283 0.000000
0.221436 0.289551 0.000000
0.254883 0.289063 0.000000
0.288086 0.288330 0.000000
0.321533 0.287842 0.000000
0.354980 0.287109 0.000000
0.388428 0.286621 0.000000
0.421631 0.285889 0.000000
0.455078 0.285400 0.000000
0.488525 0.284668 0.000000
0.521973 0.284180 0.000000
0.555176 0.283447 0.000000
0.588623 0.282959 0.000000
0.622070 0.282227 0.000000
0.655518 0.281738 0.000000
0.688721 0.281006 0.000000
0.722168 0.280518 0.000000
0.755615 0.279785 0.000000
0.789063 0.279297 0.000000
0.822266 0.278564 0.006836
0.855713 0.278076 0.013916
0.889160 0.277344 0.020996
0.922607 0.276855 0.028076
0.956044 0.276123 0.034912
0.978022 0.275635 0.041992
0.994872 0.274902 0.049072
1.000000 0.274414 0.056152
0.000000 0.330566 0.000000
0.019531 0.330078 0.000000
0.052979 0.329346 0.000000
0.086426 0.328857 0.000000
0.119629 0.328125 0.000000
0.153076 0.327637 0.000000
0.186523 0.326904 0.000000
0.219971 0.326416 0.000000
0.253174 0.325684 0.000000
0.286621 0.325195 0.000000
0.320068 0.324463 0.000000
0.353516 0.323975 0.000000
0.386719 0.323242 0.000000
0.420166 0.322754 0.000000
0.453613 0.322021 0.000000
0.487061 0.321533 0.000000
0.520264 0.320801 0.000000
0.553711 0.320313 0.000000
0.587158 0.319580 0.000000
0.620605 0.319092 0.000000
0.653809 0.318359 0.000000
0.687256 0.317871 0.000000
0.720703 0.317139 0.000000
0.754150 0.316650 0.000000
0.787354 0.315918 0.000000
0.820801 0.315430 0.000000
0.854248 0.314697 0.000000
0.887695 0.314209 0.000000
0.920898 0.313477 0.006836
0.954579 0.312988 0.013916
0.977289 0.312256 0.020996
0.994139 0.311768 0.028076
1.000000 0.311035 0.034912
0.000000 0.367432 0.000000
0.018066 0.366699 0.000000
0.051514 0.366211 0.000000
0.084717 0.365479 0.000000
0.118164 0.364990 0.000000
0.151611 0.364258 0.000000
0.185059 0.363770 0.000000
0.218262 0.363037 0.000000
0.251709 0.362549 0.000000
0.285156 0.361816 0.000000
0.318604 0.361328 0.000000
0.351807 0.360596 0.000000
0.385254 0.360107 0.000000
0.418701 0.359375 0.000000
0.452148 0.358887 0.000000
0.485352 0.358154 0.000000
0.518799 0.357666 0.000000
0.552246 0.356934 0.000000
0.585693 0.356445 0.000000
0.618896 0.355713 0.000000
0.652344 0.355225 0.000000
0.685791 0.354492 0.000000
0.719238 0.354004 0.000000
0.752441 0.353271 0.000000
0.785889 0.352783 0.000000
0.819336 0.352051 0.000000
0.852783 0.351563 0.000000
0.885986 0.350830 0.000000
0.919434 0.350342 0.000000
0.953114 0.349609 0.000000
0.976557 0.349121 0.000000
0.993407 0.348389 0.006836
1.000000 0.347900 0.013916
0.000000 0.404053 0.000000
0.016602 0.403564 0.000000
0.049805 0.402832 0.000000
0.083252 0.402344 0.000000
0.116699 0.401611 0.000000
0.150146 0.401123 0.000000
0.183350 0.400391 0.000000
0.216797 0.399902 0.000000
0.250244 0.399170 0.000000
0.283691 0.398682 0.000000
0.316895 0.397949 0.000000
0.350342 0.397461 0.000000
0.383789 0.396729 0.000000
0.417236 0.396240 0.000000
0.450439 0.395508 0.000000
0.483887 0.395020 0.000000
0.517334 0.394287 0.000000
0.550781 0.393799 0.000000
0.583984 0.393066 0.000000
0.617432 0.392578 0.000000
0.650879 0.391846 0.000000
0.684326 0.391357 0.000000
0.717529 0.390625 0.000000
0.750977 0.390137 0.000000
0.784424 0.389404 0.000000
0.817871 0.388916 0.000000
0.851074 0.388184 0.000000
0.884521 0.387695 0.000000
0.917969 0.386963 0.000000
0.951648 0.386475 0.000000
0.975824 0.385742 0.000000
0.992430 0.385254 0.000000
1.000000 0.384521 0.000000
0.000000 0.440918 0.000000
0.014893 0.440186 0.000000
0.048340 0.439697 0.000000
0.081787 0.438965 0.000000
0.115234 0.438477 0.000000
0.148438 0.437744 0.000000
0.181885 0.437256 0.000000
0.215332 0.436523 0.000000
0.248779 0.436035 0.000000
0.281982 0.435303 0.000000
0.315430 0.434814 0.000000
0.348877 0.434082 0.000000
0.382324 0.433594 0.000000
0.415527 0.432861 0.000000
0.448975 0.432373 0.000000
0.482422 0.431641 0.000000
0.515869 0.431152 0.000000
0.549072 0.430420 0.000000
0.582520 0.429932 0.000000
0.615967 0.429199 0.000000
0.649414 0.428711 0.000000
0.682617 0.427979 0.000000
0.716064 0.427490 0.000000
0.749512 0.426758 0.000000
0.782959 0.426270 0.000000
0.816162 0.425537 0.000000
0.849609 0.425049 0.000000
0.883057 0.424316 0.000000
0.916504 0.423828 0.000000
0.949939 0.423096 0.000000
0.975092 0.422607 0.000000
0.991697 0.421875 0.000000
1.000000 0.421387 0.000000
0.000000 0.477539 0.000000
0.013428 0.477051 0.000000
0.046875 0.476318 0.000000
0.080322 0.475830 0.000000
0.113525 0.475098 0.000000
0.146973 0.474609 0.000000
0.180420 0.473877 0.000000
0.213867 0.473389 0.000000
0.247070 0.472656 0.000000
0.280518 0.472168 0.000000
0.313965 0.471436 0.000000
0.347412 0.470947 0.000000
0.380615 0.470215 0.000000
0.414063 0.469727 0.000000
0.447510 0.468994 0.000000
0.480957 0.468506 0.000000
0.514160 0.467773 0.000000
0.547607 0.467285 0.000000
0.581055 0.466553 0.000000
0.614502 0.466064 0.000000
0.647705 0.465332 0.000000
0.681152 0.464844 0.000000
0.714600 0.464111 0.000000
0.748047 0.463623 0.000000
0.781250 0.462891 0.000000
0.814697 0.462402 0.000000
0.848145 0.461670 0.000000
0.881592 0.461182 0.000000
0.914795 0.460449 0.000000
0.948474 0.459961 0.000000
0.974359 0.459229 0.000000
0.990965 0.458740 0.000000
1.000000 0.458008 0.000000
0.000000 0.514404 0.000000
0.011963 0.513672 0.000000
0.045410 0.513184 0.000000
0.078613 0.512451 0.000000
0.112061 0.511963 0.000000
0.145508 0.511230 0.000000
0.178955 0.510742 0.000000
0.212158 0.510010 0.000000
0.245605 0.509521 0.000000
0.279053 0.508789 0.000000
0.312500 0.508301 0.000000
0.345703 0.507568 0.000000
0.379150 0.507080 0.000000
0.412598 0.506348 0.000000
0.446045 0.505859 0.000000
0.479248 0.505127 0.000000
0.512695 0.504639 0.000000
0.546143 0.503906 0.000000
0.579590 0.503418 0.000000
0.612793 0.502686 0.000000
0.646240 0.502197 0.000000
0.679688 0.501465 0.000000
0.713135 0.500977 0.000000
0.746338 0.500244 0.000000
0.779785 0.499756 0.000000
0.813232 0.499023 0.000000
0.846680 0.498535 0.000000
0.879883 0.497803 0.000000
0.913330 0.497314 0.000000
0.947009 0.496582 0.000000
0.973626 0.496094 0.000000
0.990232 0.495361 0.000000
1.000000 0.494873 0.000000
0.000000 0.551025 0.000000
0.010498 0.550537 0.000000
0.043701 0.549805 0.000000
0.077148 0.549316 0.000000
0.110596 0.548584 0.000000
0.144043 0.548096 0.000000
0.177246 0.547363 0.000000
0.210693 0.546875 0.000000
0.244141 0.546143 0.000000
0.277588 0.545654 0.000000
0.310791 0.544922 0.000000
0.344238 0.544434 0.000000
0.377686 0.543701 0.000000
0.411133 0.543213 0.000000
0.444336 0.542480 0.000000
0.477783 0.541992 0.000000
0.511230 0.541260 0.000000
0.544678 0.540771 0.000000
0.577881 0.540039 0.000000
0.611328 0.539551 0.000000
0.644775 0.538818 0.000000
0.678223 0.538330 0.000000
0.711426 0.537598 0.000000
0.744873 0.537109 0.000000
0.778320 0.536377 0.000000
0.811768 0.535889 0.000000
0.844971 0.535156 0.000000
0.878418 0.534668 0.000000
0.911865 0.533936 0.000000
0.945543 0.533447 0.000000
0.972894 0.532715 0.000000
0.989499 0.532227 0.000000
1.000000 0.531494 0.000000
0.000000 0.587891 0.000000
0.008789 0.587158 0.000000
0.042236 0.586670 0.000000
0.075684 0.585938 0.000000
0.109131 0.585449 0.000000
0.142334 0.584717 0.000000
0.175781 0.584229 0.000000
0.209229 0.583496 0.000000
0.242676 0.583008 0.000000
0.275879 0.582275 0.000000
0.309326 0.581787 0.000000
0.342773 0.581055 0.000000
0.376221 0.580566 0.000000
0.409424 0.579834 0.000000
0.442871 0.579346 0.000000
0.476318 0.578613 0.000000
0.509766 0.578125 0.000000
0.542969 0.577393 0.000000
0.576416 0.576904 0.000000
0.609863 0.576172 0.000000
0.643311 0.575684 0.000000
0.676514 0.574951 0.000000
0.709961 0.574463 0.000000
0.743408 0.573730 0.000000
0.776855 0.573242 0.000000
0.810059 0.572510 0.000000
0.843506 0.572021 0.000000
0.876953 0.571289 0.000000
0.910400 0.570801 0.000000
0.943834 0.570068 0.000000
0.971917 0.569580 0.000000
0.988767 0.568848 0.000000
1.000000 0.568359 0.000000
0.000000 0.624512 0.000000
0.007324 0.624023 0.000000
0.040771 0.623291 0.000000
0.074219 0.622803 0.000000
0.107422 0.622070 0.000000
0.140869 0.621582 0.000000
0.174316 0.620850 0.000000
0.207764 0.620361 0.000000
0.240967 0.619629 0.000000
0.274414 0.619141 0.000000
0.307861 0.618408 0.000000
0.341309 0.617920 0.000000
0.374512 0.617188 0.000000
0.407959 0.616699 0.000000
0.441406 0.615967 0.000000
0.474854 0.615479 0.000000
0.508057 0.614746 0.000000
0.541504 0.614258 0.000000
0.574951 0.613525 0.000000
0.608398 0.613037 0.000000
0.641602 0.612305 0.000000
0.675049 0.611816 0.000000
0.708496 0.611084 0.000000
0.741943 0.610596 0.000000
0.775146 0.609863 0.000000
0.808594 0.609375 0.000000
0.842041 0.608643 0.000000
0.875488 0.608154 0.000000
0.908691 0.607422 0.000000
0.942369 0.606934 0.000000
0.971184 0.606201 0.000000
0.988034 0.605713 0.000000
1.000000 0.604980 0.000000
0.000000 0.661377 0.000000
0.005859 0.660645 0.000000
0.039307 0.660156 0.000000
0.072510 0.659424 0.000000
0.105957 0.658936 0.000000
0.139404 0.658203 0.000000
0.172852 0.657715 0.000000
0.206055 0.656982 0.000000
0.239502 0.656494 0.000000
0.272949 0.655762 0.000000
0.306396 0.655273 0.000000
0.339600 0.654541 0.000000
0.373047 0.654053 0.000000
0.406494 0.653320 0.000000
0.439941 0.652832 0.000000
0.473145 0.652100 0.000000
0.506592 0.651611 0.000000
0.540039 0.650879 0.000000
0.573486 0.650391 0.000000
0.606689 0.649658 0.000000
0.640137 0.649170 0.000000
0.673584 0.648438 0.000000
0.707031 0.647949 0.000000
0.740234 0.647217 0.000000
0.773682 0.646729 0.000000
0.807129 0.645996 0.000000
0.840576 0.645508 0.000000
0.873779 0.644775 0.000000
0.907227 0.644287 0.000000
0.940904 0.643555 0.000000
0.970452 0.643066 0.000000
0.987302 0.642334 0.000000
1.000000 0.641846 0.000000
0.000000 0.697998 0.000000
0.004395 0.697510 0.000000
0.037598 0.696777 0.000000
0.071045 0.696289 0.000000
0.104492 0.695557 0.000000
0.137939 0.695068 0.000000
0.171143 0.694336 0.000000
0.204590 0.693848 0.000000
0.238037 0.693115 0.000000
0.271484 0.692627 0.000000
0.304688 0.691895 0.000000
0.338135 0.691406 0.000000
0.371582 0.690674 0.000000
0.405029 0.690186 0.000000
0.438232 0.689453 0.000000
0.471680 0.688965 0.000000
0.505127 0.688232 0.000000
0.538574 0.687744 0.000000
0.571777 0.687012 0.000000
0.605225 0.686523 0.000000
0.638672 0.685791 0.000000
0.672119 0.685303 0.000000
0.705322 0.684570 0.000000
0.738770 0.684082 0.000000
0.772217 0.683350 0.000000
0.805664 0.682861 0.000000
0.838867 0.682129 0.000000
0.872314 0.681641 0.000000
0.905762 0.680908 0.000000
0.939438 0.680420 0.000000
0.969719 0.679688 0.000000
0.986325 0.679199 0.000000
1.000000 0.678467 0.000000
0.000000 0.734863 0.000000
0.002686 0.734131 0.000000
0.036133 0.733643 0.000000
0.069580 0.732910 0.000000
0.103027 0.732422 0.000000
0.136230 0.731689 0.000000
0.169678 0.731201 0.000000
0.203125 0.730469 0.000000
0.236572 0.729980 0.000000
0.269775 0.729248 0.000000
0.303223 0.728760 0.000000
0.336670 0.728027 0.000000
0.370117 0.727539 0.000000
0.403320 0.726807 0.000000
0.436768 0.726318 0.000000
0.470215 0.725586 0.000000
0.503662 0.725098 0.000000
0.536865 0.724365 0.000000
0.570313 0.723877 0.000000
0.603760 0.723145 0.000000
0.637207 0.722656 0.000000
0.670410 0.721924 0.000000
0.703857 0.721436 0.000000
0.737305 0.720703 0.000000
0.770752 0.720215 0.000000
0.803955 0.719482 0.000000
0.837402 0.718994 0.000000
0.870850 0.718262 0.000000
0.904297 0.717773 0.000000
0.937500 0.717041 0.000000
0.968987 0.716553 0.000000
0.985592 0.715820 0.000000
1.000000 0.715332 0.000000
0.000000 0.771484 0.000000
0.001221 0.770996 0.000000
0.034668 0.770264 0.000000
0.068115 0.769775 0.000000
0.101318 0.769043 0.000000
0.134766 0.768555 0.000000
0.168213 0.767822 0.000000
0.201660 0.767334 0.000000
0.234863 0.766602 0.000000
0.268311 0.766113 0.000000
0.301758 0.765381 0.000000
0.335205 0.764893 0.000000
0.368408 0.764160 0.000000
0.401855 0.763672 0.000000
0.435303 0.762939 0.000000
0.468750 0.762451 0.000000
0.501953 0.761719 0.000000
0.535400 0.761230 0.000000
0.568848 0.760498 0.000000
0.602295 0.760010 0.000000
0.635498 0.759277 0.000000
0.668945 0.758789 0.000000
0.702393 0.758057 0.000000
0.735840 0.757568 0.000000
0.769043 0.756836 0.000000
0.802490 0.756348 0.000000
0.835938 0.755615 0.000000
0.869385 0.755127 0.000000
0.902588 0.754395 0.000000
0.936035 0.753906 0.000000
0.968254 0.753174 0.000000
0.984860 0.752686 0.000000
1.000000 0.751953 0.000000
0.000000 0.808350 0.000000
0.000000 0.807617 0.000000
0.033203 0.807129 0.000000
0.066406 0.806396 0.000000
0.099854 0.805908 0.000000
0.133301 0.805176 0.000000
0.166748 0.804688 0.000000
0.199951 0.803955 0.000000
0.233398 0.803467 0.000000
0.266846 0.802734 0.000000
0.300293 0.802246 0.000000
0.333496 0.801514 0.000000
0.366943 0.801025 0.000000
0.400391 0.800293 0.000000
0.433838 0.799805 0.000000
0.467041 0.799072 0.000000
0.500488 0.798584 0.000000
0.533936 0.797852 0.000000
0.567383 0.797363 0.000000
0.600586 0.796631 0.000000
0.634033 0.796143 0.000000
0.667480 0.795410 0.000000
0.700928 0.794922 0.000000
0.734131 0.794189 0.000000
0.767578 0.793701 0.000000
0.801025 0.792969 0.000000
0.834473 0.792480 0.000000
0.867676 0.791748 0.000000
0.901123 0.791260 0.000000
0.934570 0.790527 0.000000
0.967521 0.790039 0.000000
0.984127 0.789307 0.000000
1.000000 0.788818 0.000000
0.000000 0.844971 0.000000
0.000000 0.844482 0.000000
0.031494 0.843750 0.000000
0.064941 0.843262 0.000000
0.098389 0.842529 0.000000
0.131836 0.842041 0.000000
0.165039 0.841309 0.000000
0.198486 0.840820 0.000000
0.231934 0.840088 0.000000
0.265381 0.839600 0.000000
0.298584 0.838867 0.000000
0.332031 0.838379 0.000000
0.365479 0.837646 0.000000
0.398926 0.837158 0.000000
0.432129 0.836426 0.000000
0.465576 0.835938 0.000000
0.499023 0.835205 0.000000
0.532471 0.834717 0.000000
0.565674 0.833984 0.000000
0.599121 0.833496 0.000000
0.632568 0.832764 0.000000
0.666016 0.832275 0.000000
0.699219 0.831543 0.000000
0.732666 0.831055 0.000000
0.766113 0.830322 0.000000
0.799561 0.829834 0.000000
0.832764 0.829102 0.000000
0.866211 0.828613 0.000000
0.899658 0.827881 0.000000
0.933105 0.827393 0.000000
0.966789 0.826660 0.000000
0.983394 0.826172 0.000000
1.000000 0.825439 0.000000
0.000000 0.881836 0.000000
0.000000 0.881104 0.000000
0.030029 0.880615 0.000000
0.063477 0.879883 0.000000
0.096924 0.879395 0.000000
0.130127 0.878662 0.000000
0.163574 0.878174 0.000000
0.197021 0.877441 0.000000
0.230469 0.876953 0.000000
0.263672 0.876221 0.000000
0.297119 0.875732 0.000000
0.330566 0.875000 0.000000
0.364014 0.874512 0.000000
0.397217 0.873779 0.000000
0.430664 0.873291 0.000000
0.464111 0.872559 0.000000
0.497559 0.872070 0.000000
0.530762 0.871338 0.000000
0.564209 0.870850 0.000000
0.597656 0.870117 0.000000
0.631104 0.869629 0.000000
0.664307 0.868896 0.000000
0.697754 0.868408 0.000000
0.731201 0.867676 0.000000
0.764648 0.867188 0.000000
0.797852 0.866455 0.000000
0.831299 0.865967 0.000000
0.864746 0.865234 0.000000
0.898193 0.864746 0.000000
0.931396 0.864014 0.000000
0.965079 0.863525 0.000000
0.982662 0.862793 0.000000
0.999267 0.862305 0.000000
0.000000 0.918457 0.000000
0.000000 0.917969 0.000000
0.028564 0.917236 0.000000
0.062012 0.916748 0.000000
0.095215 0.916016 0.000000
0.128662 0.915527 0.000000
0.162109 0.914795 0.000000
0.195557 0.914307 0.000000
0.228760 0.913574 0.000000
0.262207 0.913086 0.000000
0.295654 0.912354 0.000000
0.329102 0.911865 0.000000
0.362305 0.911133 0.000000
0.395752 0.910645 0.000000
0.429199 0.909912 0.000000
0.462646 0.909424 0.000000
0.495850 0.908691 0.000000
0.529297 0.908203 0.000000
0.562744 0.907471 0.000000
0.596191 0.906982 0.000000
0.629395 0.906250 0.000000
0.662842 0.905762 0.000000
0.696289 0.905029 0.000000
0.729736 0.904541 0.000000
0.762939 0.903809 0.000000
0.796387 0.903320 0.000000
0.829834 0.902588 0.000000
0.863281 0.902100 0.000000
0.896484 0.901367 0.000000
0.929932 0.900879 0.000000
0.963614 0.900146 0.000000
0.981929 0.899658 0.000000
0.998535 0.898926 0.000000
0.000000 0.955556 0.000000
0.000000 0.954823 0.000000
0.027100 0.954335 0.000000
0.060303 0.953602 0.000000
0.093750 0.953114 0.000000
0.127197 0.952381 0.000000
0.160645 0.951893 0.000000
0.193848 0.951160 0.000000
0.227295 0.950672 0.000000
0.260742 0.949939 0.000000
0.294189 0.949451 0.000000
0.327393 0.948718 0.000000
0.360840 0.948230 0.000000
0.394287 0.947497 0.000000
0.427734 0.947009 0.000000
0.460938 0.946276 0.000000
0.494385 0.945788 0.000000
0.527832 0.945055 0.000000
0.561279 0.944567 0.000000
0.594482 0.943834 0.000000
0.627930 0.943346 0.000000
0.661377 0.942613 0.000000
0.694824 0.942125 0.000000
0.728027 0.941392 0.000000
0.761475 0.940904 0.000000
0.794922 0.940171 0.000000
0.828369 0.939683 0.000000
0.861572 0.938950 0.000000
