VLog_RAWGamut_to_VLog_VGamut_forS1H_ver100.cube
# VLog_RAWGamut_to_VLog_VGamut_forS1H_ver100.cube by panasonic
LUT_3D_SIZE 5
0.000000 0.000000 0.000000
0.267090 0.000000 0.056152
0.534180 0.000000 0.112305
0.801270 0.000000 0.168457
1.000000 0.000000 0.224609
0.000000 0.293945 0.000000
0.254883 0.289063 0.000000
0.521973 0.284180 0.000000
0.789063 0.279297 0.000000
1.000000 0.274414 0.056152
0.000000 0.587891 0.000000
0.242676 0.583008 0.000000
0.509766 0.578125 0.000000
0.776855 0.573242 0.000000
1.000000 0.568359 0.000000
0.000000 0.881836 0.000000
0.230469 0.876953 0.000000
0.497559 0.872070 0.000000
0.764648 0.867188 0.000000
0.999267 0.862305 0.000000
0.000000 1.000000 0.000000
0.218262 1.000000 0.000000
0.485352 1.000000 0.000000
0.752441 1.000000 0.000000
0.993162 1.000000 0.000000
0.000000 0.000000 0.362305
0.262207 0.000000 0.418457
0.529297 0.000000 0.474609
0.796387 0.000000 0.530762
1.000000 0.000000 0.586914
0.000000 0.254883 0.193848
0.250000 0.250000 0.250000
0.517090 0.245117 0.306152
0.784180 0.240234 0.362305
1.000000 0.235352 0.418457
0.000000 0.548828 0.025391
0.237793 0.543945 0.081543
0.504883 0.539063 0.137695
0.771973 0.534180 0.193848
1.000000 0.529297 0.250000
0.000000 0.842773 0.000000
0.225586 0.837891 0.000000
0.492676 0.833008 0.000000
0.759766 0.828125 0.025391
1.000000 0.823242 0.081543
0.000000 1.000000 0.000000
0.213379 1.000000 0.000000
0.480469 1.000000 0.000000
0.747559 1.000000 0.000000
1.000000 1.000000 0.000000
0.000000 0.000000 0.724609
0.257324 0.000000 0.780762
0.524414 0.000000 0.836914
0.791504 0.000000 0.893066
1.000000 0.000000 0.949451
0.000000 0.215820 0.556152
0.245117 0.210938 0.612305
0.512207 0.206055 0.668457
0.779297 0.201172 0.724609
1.000000 0.196289 0.780762
0.000000 0.509766 0.387695
0.232910 0.504883 0.443848
0.500000 0.500000 0.500000
0.767090 0.495117 0.556152
1.000000 0.490234 0.612305
0.000000 0.803711 0.219238
0.220703 0.798828 0.275391
0.487793 0.793945 0.331543
0.754883 0.789063 0.387695
1.000000 0.784180 0.443848
0.000000 1.000000 0.050781
0.208496 1.000000 0.106934
0.475586 1.000000 0.163086
0.742676 1.000000 0.219238
1.000000 1.000000 0.275391
0.000000 0.000000 1.000000
0.252441 0.000000 1.000000
0.519531 0.000000 1.000000
0.786621 0.000000 1.000000
1.000000 0.000000 1.000000
0.000000 0.176758 0.918457
0.240234 0.171875 0.974847
0.507324 0.166992 1.000000
0.774414 0.162109 1.000000
1.000000 0.157227 1.000000
0.000000 0.470703 0.750000
0.228027 0.465820 0.806152
0.495117 0.460938 0.862305
0.762207 0.456055 0.918457
1.000000 0.451172 0.974847
0.000000 0.764648 0.581543
0.215820 0.759766 0.637695
0.482910 0.754883 0.693848
0.750000 0.750000 0.750000
1.000000 0.745117 0.806152
0.000000 1.000000 0.413086
0.203613 1.000000 0.469238
0.470703 1.000000 0.525391
0.737793 1.000000 0.581543
1.000000 1.000000 0.637695
0.000000 0.000000 1.000000
0.247559 0.000000 1.000000
0.514648 0.000000 1.000000
0.781738 0.000000 1.000000
1.000000 0.000000 1.000000
0.000000 0.137695 1.000000
0.235352 0.132813 1.000000
0.502441 0.127930 1.000000
0.769531 0.123047 1.000000
1.000000 0.118164 1.000000
0.000000 0.431641 1.000000
0.223145 0.426758 1.000000
0.490234 0.421875 1.000000
0.757324 0.416992 1.000000
1.000000 0.412109 1.000000
0.000000 0.725586 0.921143
0.210938 0.720703 1.000000
0.478027 0.715820 1.000000
0.745117 0.710938 1.000000
1.000000 0.706055 1.000000
0.000000 0.991453 0.752686
0.198730 1.000000 0.831543
0.465820 1.000000 0.887695
0.732910 1.000000 0.944078
1.000000 1.000000 1.000000
