VLog_RAWGamut_to_VLog_VGamut_forS1H_ver100.cube
# VLog_RAWGamut_to_VLog_VGamut_forS1H_ver100.cube by panasonic
LUT_3D_SIZE 9
0.000000 0.000000 0.000000
0.133545 0.000000 0.028076
0.267090 0.000000 0.056152
0.400635 0.000000 0.084229
0.534180 0.000000 0.112305
0.667725 0.000000 0.140381
0.801270 0.000000 0.168457
0.934814 0.000000 0.196533
1.000000 0.000000 0.224609
0.000000 0.146973 0.000000
0.127441 0.144531 0.000000
0.260986 0.142090 0.000000
0.394531 0.139648 0.000000
0.528076 0.137207 0.028076
0.661621 0.134766 0.056152
0.795166 0.132324 0.084229
0.928711 0.129883 0.112305
1.000000 0.127441 0.140381
0.000000 0.293945 0.000000
0.121338 0.291504 0.000000
0.254883 0.289063 0.000000
0.388428 0.286621 0.000000
0.521973 0.284180 0.000000
0.655518 0.281738 0.000000
0.789063 0.279297 0.000000
0.922607 0.276855 0.028076
1.000000 0.274414 0.056152
0.000000 0.440918 0.000000
0.115234 0.438477 0.000000
0.248779 0.436035 0.000000
0.382324 0.433594 0.000000
0.515869 0.431152 0.000000
0.649414 0.428711 0.000000
0.782959 0.426270 0.000000
0.916504 0.423828 0.000000
1.000000 0.421387 0.000000
0.000000 0.587891 0.000000
0.109131 0.585449 0.000000
0.242676 0.583008 0.000000
0.376221 0.580566 0.000000
0.509766 0.578125 0.000000
0.643311 0.575684 0.000000
0.776855 0.573242 0.000000
0.910400 0.570801 0.000000
1.000000 0.568359 0.000000
0.000000 0.734863 0.000000
0.103027 0.732422 0.000000
0.236572 0.729980 0.000000
0.370117 0.727539 0.000000
0.503662 0.725098 0.000000
0.637207 0.722656 0.000000
0.770752 0.720215 0.000000
0.904297 0.717773 0.000000
1.000000 0.715332 0.000000
0.000000 0.881836 0.000000
0.096924 0.879395 0.000000
0.230469 0.876953 0.000000
0.364014 0.874512 0.000000
0.497559 0.872070 0.000000
0.631104 0.869629 0.000000
0.764648 0.867188 0.000000
0.898193 0.864746 0.000000
0.999267 0.862305 0.000000
0.000000 0.996093 0.000000
0.090820 0.994872 0.000000
0.224365 0.993651 0.000000
0.357910 0.992430 0.000000
0.491455 0.991209 0.000000
0.625000 0.989988 0.000000
0.758545 0.988767 0.000000
0.892090 0.987546 0.000000
0.996337 0.986325 0.000000
0.000000 1.000000 0.000000
0.084717 1.000000 0.000000
0.218262 1.000000 0.000000
0.351807 1.000000 0.000000
0.485352 1.000000 0.000000
0.618896 1.000000 0.000000
0.752441 1.000000 0.000000
0.885986 1.000000 0.000000
0.993162 1.000000 0.000000
0.000000 0.000000 0.181152
0.131104 0.000000 0.209229
0.264648 0.000000 0.237305
0.398193 0.000000 0.265381
0.531738 0.000000 0.293457
0.665283 0.000000 0.321533
0.798828 0.000000 0.349609
0.932373 0.000000 0.377686
1.000000 0.000000 0.405762
0.000000 0.127441 0.096924
0.125000 0.125000 0.125000
0.258545 0.122559 0.153076
0.392090 0.120117 0.181152
0.525635 0.117676 0.209229
0.659180 0.115234 0.237305
0.792725 0.112793 0.265381
0.926270 0.110352 0.293457
1.000000 0.107910 0.321533
0.000000 0.274414 0.012695
0.118896 0.271973 0.040771
0.252441 0.269531 0.068848
0.385986 0.267090 0.096924
0.519531 0.264648 0.125000
0.653076 0.262207 0.153076
0.786621 0.259766 0.181152
0.920166 0.257324 0.209229
1.000000 0.254883 0.237305
0.000000 0.421387 0.000000
0.112793 0.418945 0.000000
0.246338 0.416504 0.000000
0.379883 0.414063 0.012695
0.513428 0.411621 0.040771
0.646973 0.409180 0.068848
0.780518 0.406738 0.096924
0.914063 0.404297 0.125000
1.000000 0.401855 0.153076
0.000000 0.568359 0.000000
0.106689 0.565918 0.000000
0.240234 0.563477 0.000000
0.373779 0.561035 0.000000
0.507324 0.558594 0.000000
0.640869 0.556152 0.000000
0.774414 0.553711 0.012695
0.907959 0.551270 0.040771
1.000000 0.548828 0.068848
0.000000 0.715332 0.000000
0.100586 0.712891 0.000000
0.234131 0.710449 0.000000
0.367676 0.708008 0.000000
0.501221 0.705566 0.000000
0.634766 0.703125 0.000000
0.768311 0.700684 0.000000
0.901855 0.698242 0.000000
1.000000 0.695801 0.000000
0.000000 0.862305 0.000000
0.094482 0.859863 0.000000
0.228027 0.857422 0.000000
0.361572 0.854980 0.000000
0.495117 0.852539 0.000000
0.628662 0.850098 0.000000
0.762207 0.847656 0.000000
0.895752 0.845215 0.000000
1.000000 0.842773 0.000000
0.000000 0.986325 0.000000
0.088379 0.985104 0.000000
0.221924 0.983883 0.000000
0.355469 0.982662 0.000000
0.489014 0.981441 0.000000
0.622559 0.980220 0.000000
0.756104 0.978999 0.000000
0.889648 0.977778 0.000000
1.000000 0.976557 0.000000
0.000000 1.000000 0.000000
0.082275 1.000000 0.000000
0.215820 1.000000 0.000000
0.349365 1.000000 0.000000
0.482910 1.000000 0.000000
0.616455 1.000000 0.000000
0.750000 1.000000 0.000000
0.883545 1.000000 0.000000
1.000000 1.000000 0.000000
0.000000 0.000000 0.362305
0.128662 0.000000 0.390381
0.262207 0.000000 0.418457
0.395752 0.000000 0.446533
0.529297 0.000000 0.474609
0.662842 0.000000 0.502686
0.796387 0.000000 0.530762
0.929932 0.000000 0.558838
1.000000 0.000000 0.586914
0.000000 0.107910 0.278076
0.122559 0.105469 0.306152
0.256104 0.103027 0.334229
0.389648 0.100586 0.362305
0.523193 0.098145 0.390381
0.656738 0.095703 0.418457
0.790283 0.093262 0.446533
0.923828 0.090820 0.474609
1.000000 0.088379 0.502686
0.000000 0.254883 0.193848
0.116455 0.252441 0.221924
0.250000 0.250000 0.250000
0.383545 0.247559 0.278076
0.517090 0.245117 0.306152
0.650635 0.242676 0.334229
0.784180 0.240234 0.362305
0.917725 0.237793 0.390381
1.000000 0.235352 0.418457
0.000000 0.401855 0.109619
0.110352 0.399414 0.137695
0.243896 0.396973 0.165771
0.377441 0.394531 0.193848
0.510986 0.392090 0.221924
0.644531 0.389648 0.250000
0.778076 0.387207 0.278076
0.911621 0.384766 0.306152
1.000000 0.382324 0.334229
0.000000 0.548828 0.025391
0.104248 0.546387 0.053467
0.237793 0.543945 0.081543
0.371338 0.541504 0.109619
0.504883 0.539063 0.137695
0.638428 0.536621 0.165771
0.771973 0.534180 0.193848
0.905518 0.531738 0.221924
1.000000 0.529297 0.250000
0.000000 0.695801 0.000000
0.098145 0.693359 0.000000
0.231689 0.690918 0.000000
0.365234 0.688477 0.025391
0.498779 0.686035 0.053467
0.632324 0.683594 0.081543
0.765869 0.681152 0.109619
0.899414 0.678711 0.137695
1.000000 0.676270 0.165771
0.000000 0.842773 0.000000
0.092041 0.840332 0.000000
0.225586 0.837891 0.000000
0.359131 0.835449 0.000000
0.492676 0.833008 0.000000
0.626221 0.830566 0.000000
0.759766 0.828125 0.025391
0.893311 0.825684 0.053467
1.000000 0.823242 0.081543
0.000000 0.976557 0.000000
0.085938 0.975336 0.000000
0.219482 0.974115 0.000000
0.353027 0.972894 0.000000
0.486572 0.971673 0.000000
0.620117 0.970452 0.000000
0.753662 0.969231 0.000000
0.887207 0.968010 0.000000
1.000000 0.966789 0.000000
0.000000 1.000000 0.000000
0.079834 1.000000 0.000000
0.213379 1.000000 0.000000
0.346924 1.000000 0.000000
0.480469 1.000000 0.000000
0.614014 1.000000 0.000000
0.747559 1.000000 0.000000
0.881104 1.000000 0.000000
1.000000 1.000000 0.000000
0.000000 0.000000 0.543457
0.126221 0.000000 0.571533
0.259766 0.000000 0.599609
0.393311 0.000000 0.627686
0.526855 0.000000 0.655762
0.660400 0.000000 0.683838
0.793945 0.000000 0.711914
0.927490 0.000000 0.739990
1.000000 0.000000 0.768066
0.000000 0.088379 0.459229
0.120117 0.085938 0.487305
0.253662 0.083496 0.515381
0.387207 0.081055 0.543457
0.520752 0.078613 0.571533
0.654297 0.076172 0.599609
0.787842 0.073730 0.627686
0.921387 0.071289 0.655762
1.000000 0.068848 0.683838
0.000000 0.235352 0.375000
0.114014 0.232910 0.403076
0.247559 0.230469 0.431152
0.381104 0.228027 0.459229
0.514648 0.225586 0.487305
0.648193 0.223145 0.515381
0.781738 0.220703 0.543457
0.915283 0.218262 0.571533
1.000000 0.215820 0.599609
0.000000 0.382324 0.290771
0.107910 0.379883 0.318848
0.241455 0.377441 0.346924
0.375000 0.375000 0.375000
0.508545 0.372559 0.403076
0.642090 0.370117 0.431152
0.775635 0.367676 0.459229
0.909180 0.365234 0.487305
1.000000 0.362793 0.515381
0.000000 0.529297 0.206543
0.101807 0.526855 0.234619
0.235352 0.524414 0.262695
0.368896 0.521973 0.290771
0.502441 0.519531 0.318848
0.635986 0.517090 0.346924
0.769531 0.514648 0.375000
0.903076 0.512207 0.403076
1.000000 0.509766 0.431152
0.000000 0.676270 0.122314
0.095703 0.673828 0.150391
0.229248 0.671387 0.178467
0.362793 0.668945 0.206543
0.496338 0.666504 0.234619
0.629883 0.664063 0.262695
0.763428 0.661621 0.290771
0.896973 0.659180 0.318848
1.000000 0.656738 0.346924
0.000000 0.823242 0.038086
0.089600 0.820801 0.066162
0.223145 0.818359 0.094238
0.356689 0.815918 0.122314
0.490234 0.813477 0.150391
0.623779 0.811035 0.178467
0.757324 0.808594 0.206543
0.890869 0.806152 0.234619
1.000000 0.803711 0.262695
0.000000 0.966789 0.000000
0.083496 0.965568 0.000000
0.217041 0.964347 0.010010
0.350586 0.963126 0.038086
0.484131 0.960684 0.066162
0.617676 0.958242 0.094238
0.751221 0.955800 0.122314
0.884766 0.953358 0.150391
1.000000 0.950916 0.178467
0.000000 1.000000 0.000000
0.077393 1.000000 0.000000
0.210938 1.000000 0.000000
0.344482 1.000000 0.000000
0.478027 1.000000 0.000000
0.611572 1.000000 0.010010
0.745117 1.000000 0.038086
0.878662 1.000000 0.066162
1.000000 1.000000 0.094238
0.000000 0.000000 0.724609
0.123779 0.000000 0.752686
0.257324 0.000000 0.780762
0.390869 0.000000 0.808838
0.524414 0.000000 0.836914
0.657959 0.000000 0.864990
0.791504 0.000000 0.893066
0.925049 0.000000 0.921143
1.000000 0.000000 0.949451
0.000000 0.068848 0.640381
0.117676 0.066406 0.668457
0.251221 0.063965 0.696533
0.384766 0.061523 0.724609
0.518311 0.059082 0.752686
0.651855 0.056641 0.780762
0.785400 0.054199 0.808838
0.918945 0.051758 0.836914
1.000000 0.049316 0.864990
0.000000 0.215820 0.556152
0.111572 0.213379 0.584229
0.245117 0.210938 0.612305
0.378662 0.208496 0.640381
0.512207 0.206055 0.668457
0.645752 0.203613 0.696533
0.779297 0.201172 0.724609
0.912842 0.198730 0.752686
1.000000 0.196289 0.780762
0.000000 0.362793 0.471924
0.105469 0.360352 0.500000
0.239014 0.357910 0.528076
0.372559 0.355469 0.556152
0.506104 0.353027 0.584229
0.639648 0.350586 0.612305
0.773193 0.348145 0.640381
0.906738 0.345703 0.668457
1.000000 0.343262 0.696533
0.000000 0.509766 0.387695
0.099365 0.507324 0.415771
0.232910 0.504883 0.443848
0.366455 0.502441 0.471924
0.500000 0.500000 0.500000
0.633545 0.497559 0.528076
0.767090 0.495117 0.556152
0.900635 0.492676 0.584229
1.000000 0.490234 0.612305
0.000000 0.656738 0.303467
0.093262 0.654297 0.331543
0.226807 0.651855 0.359619
0.360352 0.649414 0.387695
0.493896 0.646973 0.415771
0.627441 0.644531 0.443848
0.760986 0.642090 0.471924
0.894531 0.639648 0.500000
1.000000 0.637207 0.528076
0.000000 0.803711 0.219238
0.087158 0.801270 0.247314
0.220703 0.798828 0.275391
0.354248 0.796387 0.303467
0.487793 0.793945 0.331543
0.621338 0.791504 0.359619
0.754883 0.789063 0.387695
0.888428 0.786621 0.415771
1.000000 0.784180 0.443848
0.000000 0.950916 0.135010
0.081055 0.948474 0.163086
0.214600 0.946032 0.191162
0.348145 0.943590 0.219238
0.481689 0.941148 0.247314
0.615234 0.938706 0.275391
0.748779 0.936035 0.303467
0.882324 0.933594 0.331543
1.000000 0.931152 0.359619
0.000000 1.000000 0.050781
0.074951 1.000000 0.078857
0.208496 1.000000 0.106934
0.342041 1.000000 0.135010
0.475586 1.000000 0.163086
0.609131 1.000000 0.191162
0.742676 1.000000 0.219238
0.876221 1.000000 0.247314
1.000000 1.000000 0.275391
0.000000 0.000000 0.905762
0.121338 0.000000 0.933838
0.254883 0.000000 0.962149
0.388428 0.000000 0.990232
0.521973 0.000000 1.000000
0.655518 0.000000 1.000000
0.789063 0.000000 1.000000
0.922607 0.000000 1.000000
1.000000 0.000000 1.000000
0.000000 0.049316 0.821533
0.115234 0.046875 0.849609
0.248779 0.044434 0.877686
0.382324 0.041992 0.905762
0.515869 0.039551 0.933838
0.649414 0.037109 0.962149
0.782959 0.034668 0.990232
0.916504 0.032227 1.000000
1.000000 0.029785 1.000000
0.000000 0.196289 0.737305
0.109131 0.193848 0.765381
0.242676 0.191406 0.793457
0.376221 0.188965 0.821533
0.509766 0.186523 0.849609
0.643311 0.184082 0.877686
0.776855 0.181641 0.905762
0.910400 0.179199 0.933838
1.000000 0.176758 0.962149
0.000000 0.343262 0.653076
0.103027 0.340820 0.681152
0.236572 0.338379 0.709229
0.370117 0.335938 0.737305
0.503662 0.333496 0.765381
0.637207 0.331055 0.793457
0.770752 0.328613 0.821533
0.904297 0.326172 0.849609
1.000000 0.323730 0.877686
0.000000 0.490234 0.568848
0.096924 0.487793 0.596924
0.230469 0.485352 0.625000
0.364014 0.482910 0.653076
0.497559 0.480469 0.681152
0.631104 0.478027 0.709229
0.764648 0.475586 0.737305
0.898193 0.473145 0.765381
1.000000 0.470703 0.793457
0.000000 0.637207 0.484619
0.090820 0.634766 0.512695
0.224365 0.632324 0.540771
0.357910 0.629883 0.568848
0.491455 0.627441 0.596924
0.625000 0.625000 0.625000
0.758545 0.622559 0.653076
0.892090 0.620117 0.681152
1.000000 0.617676 0.709229
0.000000 0.784180 0.400391
0.084717 0.781738 0.428467
0.218262 0.779297 0.456543
0.351807 0.776855 0.484619
0.485352 0.774414 0.512695
0.618896 0.771973 0.540771
0.752441 0.769531 0.568848
0.885986 0.767090 0.596924
1.000000 0.764648 0.625000
0.000000 0.931152 0.316162
0.078613 0.928711 0.344238
0.212158 0.926270 0.372314
0.345703 0.923828 0.400391
0.479248 0.921387 0.428467
0.612793 0.918945 0.456543
0.746338 0.916504 0.484619
0.879883 0.914063 0.512695
1.000000 0.911621 0.540771
0.000000 1.000000 0.231934
0.072510 1.000000 0.260010
0.206055 1.000000 0.288086
0.339600 1.000000 0.316162
0.473145 1.000000 0.344238
0.606689 1.000000 0.372314
0.740234 1.000000 0.400391
0.873779 1.000000 0.428467
1.000000 1.000000 0.456543
0.000000 0.000000 1.000000
0.118896 0.000000 1.000000
0.252441 0.000000 1.000000
0.385986 0.000000 1.000000
0.519531 0.000000 1.000000
0.653076 0.000000 1.000000
0.786621 0.000000 1.000000
0.920166 0.000000 1.000000
1.000000 0.000000 1.000000
0.000000 0.029785 0.978755
0.112793 0.027344 1.000000
0.246338 0.024902 1.000000
0.379883 0.022461 1.000000
0.513428 0.020020 1.000000
0.646973 0.017578 1.000000
0.780518 0.015137 1.000000
0.914063 0.012695 1.000000
1.000000 0.010254 1.000000
0.000000 0.176758 0.918457
0.106689 0.174316 0.946764
0.240234 0.171875 0.974847
0.373779 0.169434 1.000000
0.507324 0.166992 1.000000
0.640869 0.164551 1.000000
0.774414 0.162109 1.000000
0.907959 0.159668 1.000000
1.000000 0.157227 1.000000
0.000000 0.323730 0.834229
0.100586 0.321289 0.862305
0.234131 0.318848 0.890381
0.367676 0.316406 0.918457
0.501221 0.313965 0.946764
0.634766 0.311523 0.974847
0.768311 0.309082 1.000000
0.901855 0.306641 1.000000
1.000000 0.304199 1.000000
0.000000 0.470703 0.750000
0.094482 0.468262 0.778076
0.228027 0.465820 0.806152
0.361572 0.463379 0.834229
0.495117 0.460938 0.862305
0.628662 0.458496 0.890381
0.762207 0.456055 0.918457
0.895752 0.453613 0.946764
1.000000 0.451172 0.974847
0.000000 0.617676 0.665771
0.088379 0.615234 0.693848
0.221924 0.612793 0.721924
0.355469 0.610352 0.750000
0.489014 0.607910 0.778076
0.622559 0.605469 0.806152
0.756104 0.603027 0.834229
0.889648 0.600586 0.862305
1.000000 0.598145 0.890381
0.000000 0.764648 0.581543
0.082275 0.762207 0.609619
0.215820 0.759766 0.637695
0.349365 0.757324 0.665771
0.482910 0.754883 0.693848
0.616455 0.752441 0.721924
0.750000 0.750000 0.750000
0.883545 0.747559 0.778076
1.000000 0.745117 0.806152
0.000000 0.911621 0.497314
0.076172 0.909180 0.525391
0.209717 0.906738 0.553467
0.343262 0.904297 0.581543
0.476807 0.901855 0.609619
0.610352 0.899414 0.637695
0.743896 0.896973 0.665771
0.877441 0.894531 0.693848
1.000000 0.892090 0.721924
0.000000 1.000000 0.413086
0.070068 1.000000 0.441162
0.203613 1.000000 0.469238
0.337158 1.000000 0.497314
0.470703 1.000000 0.525391
0.604248 1.000000 0.553467
0.737793 1.000000 0.581543
0.871338 1.000000 0.609619
1.000000 1.000000 0.637695
0.000000 0.000000 1.000000
0.116455 0.000000 1.000000
0.250000 0.000000 1.000000
0.383545 0.000000 1.000000
0.517090 0.000000 1.000000
0.650635 0.000000 1.000000
0.784180 0.000000 1.000000
0.917725 0.000000 1.000000
1.000000 0.000000 1.000000
0.000000 0.010254 1.000000
0.110352 0.007813 1.000000
0.243896 0.005371 1.000000
0.377441 0.002930 1.000000
0.510986 0.000488 1.000000
0.644531 0.000000 1.000000
0.778076 0.000000 1.000000
0.911621 0.000000 1.000000
1.000000 0.000000 1.000000
0.000000 0.157227 1.000000
0.104248 0.154785 1.000000
0.237793 0.152344 1.000000
0.371338 0.149902 1.000000
0.504883 0.147461 1.000000
0.638428 0.145020 1.000000
0.771973 0.142578 1.000000
0.905518 0.140137 1.000000
1.000000 0.137695 1.000000
0.000000 0.304199 0.985104
0.098145 0.301758 1.000000
0.231689 0.299316 1.000000
0.365234 0.296875 1.000000
0.498779 0.294434 1.000000
0.632324 0.291992 1.000000
0.765869 0.289551 1.000000
0.899414 0.287109 1.000000
1.000000 0.284668 1.000000
0.000000 0.451172 0.931152
0.092041 0.448730 0.959463
0.225586 0.446289 0.987546
0.359131 0.443848 1.000000
0.492676 0.441406 1.000000
0.626221 0.438965 1.000000
0.759766 0.436523 1.000000
0.893311 0.434082 1.000000
1.000000 0.431641 1.000000
0.000000 0.598145 0.846924
0.085938 0.595703 0.875000
0.219482 0.593262 0.903076
0.353027 0.590820 0.931152
0.486572 0.588379 0.959463
0.620117 0.585938 0.987546
0.753662 0.583496 1.000000
0.887207 0.581055 1.000000
1.000000 0.578613 1.000000
0.000000 0.745117 0.762695
0.079834 0.742676 0.790771
0.213379 0.740234 0.818848
0.346924 0.737793 0.846924
0.480469 0.735352 0.875000
0.614014 0.732910 0.903076
0.747559 0.730469 0.931152
0.881104 0.728027 0.959463
1.000000 0.725586 0.987546
0.000000 0.892090 0.678467
0.073730 0.889648 0.706543
0.207275 0.887207 0.734619
0.340820 0.884766 0.762695
0.474365 0.882324 0.790771
0.607910 0.879883 0.818848
0.741455 0.877441 0.846924
0.875000 0.875000 0.875000
1.000000 0.872559 0.903076
0.000000 1.000000 0.594238
0.067627 1.000000 0.622314
0.201172 1.000000 0.650391
0.334717 1.000000 0.678467
0.468262 1.000000 0.706543
0.601807 1.000000 0.734619
0.735352 1.000000 0.762695
0.868896 1.000000 0.790771
1.000000 1.000000 0.818848
0.000000 0.000000 1.000000
0.114014 0.000000 1.000000
0.247559 0.000000 1.000000
0.381104 0.000000 1.000000
0.514648 0.000000 1.000000
0.648193 0.000000 1.000000
0.781738 0.000000 1.000000
0.915283 0.000000 1.000000
1.000000 0.000000 1.000000
0.000000 0.000000 1.000000
0.107910 0.000000 1.000000
0.241455 0.000000 1.000000
0.375000 0.000000 1.000000
0.508545 0.000000 1.000000
0.642090 0.000000 1.000000
0.775635 0.000000 1.000000
0.909180 0.000000 1.000000
1.000000 0.000000 1.000000
0.000000 0.137695 1.000000
0.101807 0.135254 1.000000
0.235352 0.132813 1.000000
0.368896 0.130371 1.000000
0.502441 0.127930 1.000000
0.635986 0.125488 1.000000
0.769531 0.123047 1.000000
0.903076 0.120605 1.000000
1.000000 0.118164 1.000000
0.000000 0.284668 1.000000
0.095703 0.282227 1.000000
0.229248 0.279785 1.000000
0.362793 0.277344 1.000000
0.496338 0.274902 1.000000
0.629883 0.272461 1.000000
0.763428 0.270020 1.000000
0.896973 0.267578 1.000000
1.000000 0.265137 1.000000
0.000000 0.431641 1.000000
0.089600 0.429199 1.000000
0.223145 0.426758 1.000000
0.356689 0.424316 1.000000
0.490234 0.421875 1.000000
0.623779 0.419434 1.000000
0.757324 0.416992 1.000000
0.890869 0.414551 1.000000
1.000000 0.412109 1.000000
0.000000 0.578613 0.991453
0.083496 0.576172 1.000000
0.217041 0.573730 1.000000
0.350586 0.571289 1.000000
0.484131 0.568848 1.000000
0.617676 0.566406 1.000000
0.751221 0.563965 1.000000
0.884766 0.561523 1.000000
1.000000 0.559082 1.000000
0.000000 0.725586 0.921143
0.077393 0.723145 0.972161
0.210938 0.720703 1.000000
0.344482 0.718262 1.000000
0.478027 0.715820 1.000000
0.611572 0.713379 1.000000
0.745117 0.710938 1.000000
0.878662 0.708496 1.000000
1.000000 0.706055 1.000000
0.000000 0.872559 0.836914
0.071289 0.870117 0.887695
0.204834 0.867676 0.915771
0.338379 0.865234 0.944078
0.471924 0.862793 0.972161
0.605469 0.860352 1.000000
0.739014 0.857910 1.000000
0.872559 0.855469 1.000000
1.000000 0.853027 1.000000
0.000000 0.991453 0.752686
0.065186 1.000000 0.803467
0.198730 1.000000 0.831543
0.332275 1.000000 0.859619
0.465820 1.000000 0.887695
0.599365 1.000000 0.915771
0.732910 1.000000 0.944078
0.866455 1.000000 0.972161
1.000000 1.000000 1.000000
